app/dist/common/images/midway-ltd.svg

<svg height="18" viewBox="0 0 18 18" width="18" xmlns="http://www.w3.org/2000/svg"><path d="m0 0h18v18h-18z" fill="#f0f3fa"/><path d="m11 12h1v-5.52l-2.43 5.26c-.11.24-.3.37-.57.37-.24 0-.49-.13-.57-.37l-2.38-5.26h-.05v5.52h1v1h-3v-1h1v-6h-1v-1h2.16c.3 0 .49.16.57.43.76 2.01 1.59 3.01 2.24 5.07h.06c.74-2.03 1.5-3.05 2.27-5.07.1-.27.3-.43.6-.43h2.1v1h-1v6h1v1h-3z" fill="#205c40"/></svg>

<!-- by TradingView --><svg width="18" height="18" viewBox="0 0 18 18" xmlns="http://www.w3.org/2000/svg"><path fill="#F0F3FA" d="M0 0h18v18H0z"/><path d="M11 12h1V6.48l-2.43 5.26c-.11.24-.3.37-.57.37-.24 0-.49-.13-.57-.37L6.05 6.48H6V12h1v1H4v-1h1V6H4V5h2.16c.3 0 .49.16.57.43.76 2.01 1.59 3.01 2.24 5.07h.06c.74-2.03 1.5-3.05 2.27-5.07.1-.27.3-.43.6-.43H14v1h-1v6h1v1h-3v-1Z" fill="#205C40"/></svg>
